img/quotation-mark-3.svg

<svg fill="none" height="40" viewBox="0 0 50 40" width="50" xmlns="http://www.w3.org/2000/svg"><path d="m22.2938 4.63023-9.1495 16.97747-5.28348 1.4148c.60138-1.1147 1.28866-2.0579 2.06186-2.8296.85912-.7717 1.76112-1.1575 2.70622-1.1575 2.2336 0 4.2525.9432 6.0567 2.8296 1.89 1.8863 2.835 4.2443 2.835 7.0739 0 3.0011-1.0309 5.6163-3.0928 7.8457-2.0618 2.1436-4.5962 3.2154-7.6031 3.2154-2.92092 0-5.45528-1.0718-7.60305-3.2154-2.14777-2.1437-3.22165-4.7589-3.22165-7.8457 0-1.2004.257732-2.6152.773196-4.2444.515464-1.7149 1.460484-3.8585 2.835054-6.4308l9.92265-18.2637zm27.7062 0-9.1495 16.97747-5.2835 1.4148c.6014-1.1147 1.2887-2.0579 2.0619-2.8296s1.6752-1.1575 2.7061-1.1575c2.2337 0 4.2526.9432 6.0568 2.8296 1.89 1.8863 2.835 4.2443 2.835 7.0739 0 3.0011-1.0739 5.6163-3.2217 7.8457-2.0618 2.1436-4.5962 3.2154-7.603 3.2154-2.8351 0-5.3265-1.0718-7.4743-3.2154-2.1477-2.1437-3.2216-4.7589-3.2216-7.8457 0-1.2004.2577-2.6152.7732-4.2444.5154-1.7149 1.4605-3.8585 2.835-6.4308l9.9227-18.2637z" fill="#11d796"/></svg>

<svg width="50" height="40" viewBox="0 0 50 40" fill="none" xmlns="http://www.w3.org/2000/svg">
<path d="M22.2938 4.63023L13.1443 21.6077L7.86082 23.0225C8.4622 21.9078 9.14948 20.9646 9.92268 20.1929C10.7818 19.4212 11.6838 19.0354 12.6289 19.0354C14.8625 19.0354 16.8814 19.9786 18.6856 21.865C20.5756 23.7513 21.5206 26.1093 21.5206 28.9389C21.5206 31.94 20.4897 34.5552 18.4278 36.7846C16.366 38.9282 13.8316 40 10.8247 40C7.90378 40 5.36942 38.9282 3.22165 36.7846C1.07388 34.6409 0 32.0257 0 28.9389C0 27.7385 0.257732 26.3237 0.773196 24.6945C1.28866 22.9796 2.23368 20.836 3.60825 18.2637L13.5309 0L22.2938 4.63023ZM50 4.63023L40.8505 21.6077L35.567 23.0225C36.1684 21.9078 36.8557 20.9646 37.6289 20.1929C38.4021 19.4212 39.3041 19.0354 40.335 19.0354C42.5687 19.0354 44.5876 19.9786 46.3918 21.865C48.2818 23.7513 49.2268 26.1093 49.2268 28.9389C49.2268 31.94 48.1529 34.5552 46.0051 36.7846C43.9433 38.9282 41.4089 40 38.4021 40C35.567 40 33.0756 38.9282 30.9278 36.7846C28.7801 34.6409 27.7062 32.0257 27.7062 28.9389C27.7062 27.7385 27.9639 26.3237 28.4794 24.6945C28.9948 22.9796 29.9399 20.836 31.3144 18.2637L41.2371 0L50 4.63023Z" fill="#11D796"/>
</svg>
